assets/icon-contact-us.svg

<svg xmlns="http://www.w3.org/2000/svg" xmlns:xlink="http://www.w3.org/1999/xlink" width="50" height="39.28570556640625" viewBox="0 0 50 39.28570556640625" fill="none">
<path d="M44.6429 5.96045e-06L5.35713 5.96045e-06C2.5 5.96045e-06 3.72529e-07 2.50001 3.72529e-07 5.35713L3.72529e-07 33.9286C3.72529e-07 36.7857 2.5 39.2857 5.35713 39.2857L44.6429 39.2857C47.5 39.2857 50 36.7857 50 33.9286L50 5.35713C50 2.50001 47.5 1.11759e-06 44.6429 1.11759e-06L44.6429 5.96045e-06ZM5.35713 3.57145L44.6429 3.57145L27.5 20.7143C26.7857 21.4286 26.0714 21.7857 25 21.7857C23.9286 21.7857 23.2143 21.4286 22.5 20.7143L5.35713 3.57145ZM3.57143 34.6429L3.57143 6.78569L17.5 20.7143L3.57143 34.6429ZM7.5 35.7143L20 23.2143C21.4286 24.6429 23.2143 25.3571 25 25.3571C26.7857 25.3571 28.5714 24.6429 30 23.2143L32.1429 21.0714L30 23.2143L42.5 35.7143L7.5 35.7143ZM46.4286 33.9286L46.4286 34.6429L32.5 20.7143L46.4286 6.78569L46.4286 33.9286Z"   fill="#000000" >
</path>
</svg>

<svg xmlns="http://www.w3.org/2000/svg" width="50" height="39.286" viewBox="0 0 50 39.286" fill="none"><path d="M44.643 0H5.357C2.5 0 0 2.5 0 5.357V33.93c0 2.857 2.5 5.357 5.357 5.357h39.286c2.857 0 5.357-2.5 5.357-5.357V5.357C50 2.5 47.5 0 44.643 0zM5.357 3.571h39.286L27.5 20.714c-.714.715-1.429 1.072-2.5 1.072s-1.786-.357-2.5-1.072L5.357 3.571zM3.571 34.643V6.786L17.5 20.714 3.571 34.643zM7.5 35.714l12.5-12.5c1.429 1.429 3.214 2.143 5 2.143s3.571-.714 5-2.143l2.143-2.143L30 23.214l12.5 12.5h-35zm38.929-1.785v.714L32.5 20.714 46.429 6.786v27.143z" fill="#000"/></svg>
